X:1854
T:Highland Cathedral
C:Ulrich Roever & Michael Korb
R:Slow Air
O:Tyskland
Z:Pompom Sönnfors
M:4/4
L:1/8
Q:1/4=65
K:D
|: d3 e/2f/2 edAd  | e3 f f4    | f3 g/2a/2 gfed   | e3 f A4         |
   B3 c/2d/2 dAcd  | a3 g f4    | e3 f/2g/2 fdAd   | e3 d d4        :|
   c3 A e3 c/2e/2  | f3 c c3 B  | A2- A/2B/2c B4   | c2- c/2d/2e B4  |
   c3 A e3 c/2e/2  | f3 c c3 B  | A2- A/2B/2c B3 A | HA8             ||
   d3 e/2f/2 edAd  | e3 f f4    | f3 g/2a/2 gfed   | e3 f A4         |
   B3 c/2d/2 dAcd  | a3 g f4    | e3 f/2g/2 fdAd   | e3 d d4        |]
(:musicend:)
(:music:)
